assets/azuredatacollectionrules/original.svg

<svg height="18" viewBox="0 0 18 18" width="18" xmlns="http://www.w3.org/2000/svg" xmlns:xlink="http://www.w3.org/1999/xlink"><linearGradient id="a" gradientUnits="userSpaceOnUse" x1="10.463" x2="10.463" y1="15.888" y2="-2.112"><stop offset="0" stop-color="#0078d4"/><stop offset="1" stop-color="#5ea0ef"/></linearGradient><linearGradient id="b" gradientUnits="userSpaceOnUse" x1="7.179" x2="7.179" y1=".537" y2="12.51"><stop offset="0" stop-color="#50e6ff"/><stop offset="1" stop-color="#32bedd"/></linearGradient><rect fill="url(#a)" height="18" rx=".6" width="14.7" x="3.113"/><rect fill="url(#b)" height="7.291" rx=".541" width="13.985" x=".187" y="1.867"/><path d="m11.887 4.423h-6.818a.12.12 0 0 1 -.124-.12v-.403a.123.123 0 0 1 .123-.123h6.818a.124.124 0 0 1 .124.123v.4a.12.12 0 0 1 -.122.123zm-7.9.291v-1.226a.21.21 0 0 0 -.212-.212h-1.228a.21.21 0 0 0 -.212.211v1.227a.21.21 0 0 0 .211.211h1.227a.21.21 0 0 0 .212-.211z" fill="#fff"/><path d="m11.886 7.023h-6.817a.124.124 0 0 1 -.124-.123v-.406a.124.124 0 0 1 .124-.124h6.816a.125.125 0 0 1 .124.124v.4a.125.125 0 0 1 -.123.125zm-8.206-.829h-1.023v1.02h1.023zm.107-.321a.216.216 0 0 1 .213.214v1.233a.214.214 0 0 1 -.214.213h-1.236a.213.213 0 0 1 -.213-.213v-1.237a.213.213 0 0 1 .213-.213z" fill="#fff" opacity=".8"/><path d="m13.382 11.108a.12.12 0 0 0 -.084-.035.12.12 0 0 0 -.117.119v1.487h-10.068v1.773h10.068v1.385a.118.118 0 0 0 .2.084l2.324-2.321a.117.117 0 0 0 0-.166z" fill="#83b9f9"/>​</svg>

<svg xmlns="http://www.w3.org/2000/svg" width="18" height="18" viewBox="0 0 18 18"><linearGradient id="a" x1="10.463" x2="10.463" y1="15.888" y2="-2.112" gradientUnits="userSpaceOnUse"><stop offset="0" stop-color="#0078d4"/><stop offset="1" stop-color="#5ea0ef"/></linearGradient><linearGradient id="b" x1="7.179" x2="7.179" y1=".537" y2="12.51" gradientUnits="userSpaceOnUse"><stop offset="0" stop-color="#50e6ff"/><stop offset="1" stop-color="#32bedd"/></linearGradient><rect width="14.7" height="18" x="3.113" fill="url(#a)" rx=".6"/><rect width="13.985" height="7.291" x=".187" y="1.867" fill="url(#b)" rx=".541"/><path fill="#fff" d="M11.887 4.423H5.069a.12.12 0 0 1-.124-.12V3.9a.123.123 0 0 1 .123-.123h6.818a.124.124 0 0 1 .124.123v.4a.12.12 0 0 1-.122.123zm-7.9.291V3.488a.21.21 0 0 0-.212-.212H2.547a.21.21 0 0 0-.212.211v1.227a.21.21 0 0 0 .211.211h1.227a.21.21 0 0 0 .212-.211z"/><path fill="#fff" d="M11.886 7.023H5.069a.124.124 0 0 1-.124-.123v-.406a.124.124 0 0 1 .124-.124h6.816a.125.125 0 0 1 .124.124v.4a.125.125 0 0 1-.123.125zM3.68 6.194H2.657v1.02H3.68zm.107-.321A.216.216 0 0 1 4 6.087V7.32a.214.214 0 0 1-.214.213H2.55a.213.213 0 0 1-.213-.213V6.083a.213.213 0 0 1 .213-.213z" opacity=".8"/><path fill="#83b9f9" d="M13.382 11.108a.12.12 0 0 0-.084-.035.12.12 0 0 0-.117.119v1.487H3.113v1.773h10.068v1.385a.118.118 0 0 0 .2.084l2.324-2.321a.117.117 0 0 0 0-.166z"/>​</svg>
